packages/dnb-eufemia/assets/icons/hand_money_medium.svg

<svg width="25" height="24" viewBox="0 0 25 24" fill="none" xmlns="http://www.w3.org/2000/svg">
<path d="M0.82641 11.2539C0.414338 11.2118 0.0461872 11.5118 0.00412172 11.9238C-0.0379438 12.3359 0.262006 12.7041 0.674078 12.7461L0.82641 11.2539ZM6.06061 12.5421L6.13822 11.7961L6.13677 11.796L6.06061 12.5421ZM7.64935 13.2001L8.12103 12.617L8.11925 12.6155L7.64935 13.2001ZM11.8595 16.6058L11.3878 17.1889C11.3919 17.1922 11.396 17.1954 11.4002 17.1987L11.8595 16.6058ZM12.7452 18.3231L11.9963 18.3625C11.9966 18.3695 11.9971 18.3765 11.9977 18.3834L12.7452 18.3231ZM11.8913 19.8045L11.5852 19.1198L11.5796 19.1224L11.8913 19.8045ZM9.76634 19.6142L10.1922 18.9968C10.1871 18.9933 10.1819 18.9898 10.1767 18.9864L9.76634 19.6142ZM7.44802 17.2029C7.10131 16.9762 6.63652 17.0736 6.40989 17.4203C6.18327 17.767 6.28062 18.2318 6.62734 18.4584L7.44802 17.2029ZM12.5439 18.7132C12.1297 18.7132 11.7939 19.049 11.7939 19.4632C11.7939 19.8774 12.1297 20.2132 12.5439 20.2132V18.7132ZM19.7843 19.4632V20.2133L19.7946 20.2132L19.7843 19.4632ZM22.3277 21.6111L22.4142 22.3561C22.7924 22.3122 23.0777 21.9918 23.0777 21.6111H22.3277ZM10.4263 22.9932L10.4751 23.7416C10.4877 23.7408 10.5003 23.7397 10.5129 23.7382L10.4263 22.9932ZM8.91149 22.7193L9.22277 22.037L9.22252 22.0369L8.91149 22.7193ZM1.06127 18.3175C0.684349 18.1458 0.239548 18.3121 0.0677745 18.689C-0.103999 19.0659 0.0623038 19.5107 0.439221 19.6825L1.06127 18.3175ZM10.7747 10.75V11.5V10.75ZM10.7747 3.75V4.5V3.75ZM17.2747 15.25V16V15.25ZM17.2747 8.25V9V8.25ZM0.674078 12.7461L5.98444 13.2882L6.13677 11.796L0.82641 11.2539L0.674078 12.7461ZM5.98299 13.2881C6.41532 13.3331 6.83003 13.5037 7.17944 13.7846L8.11925 12.6155C7.54851 12.1567 6.86235 11.8715 6.13822 11.7961L5.98299 13.2881ZM7.17766 13.7832L11.3878 17.1889L12.3312 16.0227L8.12103 12.617L7.17766 13.7832ZM11.4002 17.1987C11.748 17.4681 11.9716 17.8927 11.9963 18.3625L13.4942 18.2837C13.4473 17.3913 13.0218 16.5574 12.3188 16.0129L11.4002 17.1987ZM11.9977 18.3834C12.0244 18.7153 11.8428 19.0047 11.5852 19.1198L12.1973 20.4893C13.062 20.1028 13.5683 19.1986 13.4928 18.2628L11.9977 18.3834ZM11.5796 19.1224C11.1281 19.3286 10.6078 19.2835 10.1922 18.9968L9.34048 20.2316C10.1874 20.8158 11.2677 20.914 12.203 20.4867L11.5796 19.1224ZM10.1767 18.9864L7.44802 17.2029L6.62734 18.4584L9.356 20.242L10.1767 18.9864ZM12.5439 20.2132H19.7843V18.7132H12.5439V20.2132ZM19.7946 20.2132C20.1455 20.2083 20.6295 20.3133 21.0023 20.5564C21.344 20.7792 21.5777 21.1001 21.5777 21.6111H23.0777C23.0777 20.511 22.5143 19.7515 21.8216 19.2999C21.16 18.8685 20.3723 18.7051 19.774 18.7133L19.7946 20.2132ZM22.3277 21.6111C22.2412 20.8661 22.2412 20.8661 22.2411 20.8661C22.2411 20.8661 22.2411 20.8661 22.241 20.8661C22.2409 20.8661 22.2407 20.8661 22.2404 20.8662C22.24 20.8662 22.2392 20.8663 22.2383 20.8664C22.2363 20.8667 22.2334 20.867 22.2296 20.8674C22.2218 20.8683 22.2102 20.8697 22.1947 20.8715C22.1637 20.8751 22.1172 20.8805 22.0552 20.8877C21.9312 20.9021 21.7453 20.9237 21.4973 20.9525C21.0015 21.0101 20.2576 21.0964 19.2658 21.2116C17.2823 21.442 14.3069 21.7875 10.3398 22.2482L10.5129 23.7382C14.48 23.2775 17.4553 22.932 19.4389 22.7016C20.4307 22.5864 21.1745 22.5 21.6704 22.4425C21.9183 22.4137 22.1043 22.3921 22.2283 22.3777C22.2902 22.3705 22.3367 22.3651 22.3677 22.3615C22.3832 22.3597 22.3948 22.3583 22.4026 22.3574C22.4065 22.357 22.4094 22.3566 22.4113 22.3564C22.4123 22.3563 22.413 22.3562 22.4135 22.3562C22.4138 22.3561 22.4139 22.3561 22.414 22.3561C22.4141 22.3561 22.4141 22.3561 22.4142 22.3561C22.4142 22.3561 22.4142 22.3561 22.3277 21.6111ZM10.3776 22.2448C9.97502 22.271 9.57503 22.1977 9.22277 22.037L8.60021 23.4017C9.18278 23.6674 9.83067 23.7836 10.4751 23.7416L10.3776 22.2448ZM9.22252 22.0369L1.06127 18.3175L0.439221 19.6825L8.60047 23.4018L9.22252 22.0369ZM12.0247 7.25C12.0247 8.11016 11.8239 8.85201 11.5378 9.35277C11.2395 9.87474 10.9417 10 10.7747 10V11.5C11.7123 11.5 12.4145 10.8418 12.8401 10.097C13.2778 9.33098 13.5247 8.32284 13.5247 7.25H12.0247ZM10.7747 10C10.6077 10 10.31 9.87474 10.0117 9.35277C9.72554 8.85201 9.52472 8.11016 9.52472 7.25H8.02472C8.02472 8.32284 8.27161 9.33098 8.70932 10.097C9.13491 10.8418 9.83714 11.5 10.7747 11.5V10ZM9.52472 7.25C9.52472 6.38984 9.72554 5.64799 10.0117 5.14723C10.31 4.62526 10.6077 4.5 10.7747 4.5V3C9.83714 3 9.13491 3.65825 8.70932 4.40302C8.27161 5.16902 8.02472 6.17716 8.02472 7.25H9.52472ZM10.7747 4.5C10.9417 4.5 11.2395 4.62526 11.5378 5.14723C11.8239 5.64799 12.0247 6.38984 12.0247 7.25H13.5247C13.5247 6.17716 13.2778 5.16902 12.8401 4.40302C12.4145 3.65825 11.7123 3 10.7747 3V4.5ZM18.5247 11.75C18.5247 12.6102 18.3239 13.352 18.0378 13.8528C17.7395 14.3747 17.4417 14.5 17.2747 14.5V16C18.2123 16 18.9145 15.3418 19.3401 14.597C19.7778 13.831 20.0247 12.8228 20.0247 11.75H18.5247ZM17.2747 14.5C17.1077 14.5 16.81 14.3747 16.5117 13.8528C16.2255 13.352 16.0247 12.6102 16.0247 11.75H14.5247C14.5247 12.8228 14.7716 13.831 15.2093 14.597C15.6349 15.3418 16.3371 16 17.2747 16V14.5ZM16.0247 11.75C16.0247 10.8898 16.2255 10.148 16.5117 9.64723C16.81 9.12526 17.1077 9 17.2747 9V7.5C16.3371 7.5 15.6349 8.15825 15.2093 8.90302C14.7716 9.66902 14.5247 10.6772 14.5247 11.75H16.0247ZM17.2747 9C17.4417 9 17.7395 9.12526 18.0378 9.64723C18.3239 10.148 18.5247 10.8898 18.5247 11.75H20.0247C20.0247 10.6772 19.7778 9.66902 19.3401 8.90302C18.9145 8.15825 18.2123 7.5 17.2747 7.5V9Z" fill="black"/>
</svg>

<svg width="24" height="24" viewBox="0 0 24 24" fill="none" xmlns="http://www.w3.org/2000/svg"><path d="M.826 11.254a.75.75 0 1 0-.152 1.492l.152-1.492Zm5.235 1.288.077-.746h-.001l-.076.746Zm1.588.658.472-.583-.002-.002-.47.585Zm4.21 3.406-.471.583.012.01.46-.593Zm.886 1.717-.749.04.002.02.747-.06Zm-.854 1.482-.306-.685-.005.002.311.683Zm-2.125-.19.426-.618a.837.837 0 0 0-.015-.01l-.41.627Zm-2.318-2.412a.75.75 0 1 0-.82 1.255l.82-1.255Zm5.096 1.51a.75.75 0 0 0 0 1.5v-1.5Zm7.24.75v.75h.01l-.01-.75Zm2.544 2.148.086.745a.75.75 0 0 0 .664-.745h-.75Zm-11.902 1.382.05.749a.689.689 0 0 0 .037-.004l-.087-.745Zm-1.515-.274.312-.682-.312.682Zm-7.85-4.402a.75.75 0 0 0-.622 1.366l.622-1.366Zm9.714-7.567v.75-.75Zm0-7v.75-.75Zm6.5 11.5V16v-.75Zm0-7V9v-.75Zm-16.6 4.496 5.31.542.152-1.492-5.31-.542-.153 1.492Zm5.308.542c.432.045.847.216 1.196.497l.94-1.17a3.788 3.788 0 0 0-1.98-.819l-.156 1.492Zm1.195.495 4.21 3.406.943-1.166-4.21-3.406-.943 1.166ZM11.4 17.2c.348.27.572.694.596 1.163l1.498-.078a3.074 3.074 0 0 0-1.175-2.271L11.4 17.2Zm.598 1.184a.736.736 0 0 1-.413.737l.612 1.37c.865-.387 1.371-1.291 1.296-2.227l-1.495.12Zm-.418.74a1.402 1.402 0 0 1-1.388-.126l-.852 1.235a2.902 2.902 0 0 0 2.863.255l-.623-1.365Zm-1.403-.137-2.729-1.783-.82 1.255 2.728 1.784.82-1.256Zm2.367 1.227h7.24v-1.5h-7.24v1.5Zm7.25 0c.351-.005.835.1 1.208.343.342.223.576.544.576 1.055h1.5c0-1.1-.564-1.86-1.256-2.311a3.794 3.794 0 0 0-2.048-.587l.02 1.5Zm2.534 1.398-.087-.745h-.003l-.008.001-.035.005-.14.016-.558.064-2.231.26-8.926 1.036.173 1.49 8.926-1.036 2.231-.26.558-.064.14-.017.035-.004h.011l-.086-.746Zm-11.95.634a2.416 2.416 0 0 1-1.155-.208L8.6 23.402c.583.265 1.23.382 1.875.34l-.097-1.497Zm-1.155-.208-8.162-3.72-.622 1.366L8.6 23.402l.623-1.365ZM12.025 7.25c0 .86-.201 1.602-.487 2.103-.299.522-.596.647-.763.647v1.5c.937 0 1.64-.658 2.065-1.403.438-.766.685-1.774.685-2.847h-1.5ZM10.775 10c-.167 0-.465-.125-.763-.647-.286-.501-.487-1.243-.487-2.103h-1.5c0 1.073.247 2.081.684 2.847.426.745 1.128 1.403 2.066 1.403V10Zm-1.25-2.75c0-.86.2-1.602.487-2.103.298-.522.596-.647.763-.647V3c-.938 0-1.64.658-2.066 1.403-.437.766-.684 1.774-.684 2.847h1.5Zm1.25-2.75c.167 0 .464.125.763.647.286.501.487 1.243.487 2.103h1.5c0-1.073-.247-2.081-.685-2.847C12.415 3.658 11.712 3 10.775 3v1.5Zm7.75 7.25c0 .86-.201 1.602-.487 2.103-.299.522-.596.647-.763.647V16c.937 0 1.64-.658 2.065-1.403.438-.766.685-1.774.685-2.847h-1.5Zm-1.25 2.75c-.167 0-.465-.125-.763-.647-.287-.501-.487-1.243-.487-2.103h-1.5c0 1.073.247 2.081.684 2.847.426.745 1.128 1.403 2.066 1.403v-1.5Zm-1.25-2.75c0-.86.2-1.602.487-2.103.298-.522.596-.647.763-.647V7.5c-.938 0-1.64.658-2.066 1.403-.437.766-.684 1.774-.684 2.847h1.5ZM17.275 9c.167 0 .465.125.763.647.286.501.487 1.243.487 2.103h1.5c0-1.073-.247-2.081-.685-2.847-.425-.745-1.128-1.403-2.065-1.403V9Z" fill="#000"/></svg>
